contributed-vectors/myoffice_documents.svg

<svg width="192" height="192" viewBox="0 0 192 192" fill="none" xmlns="http://www.w3.org/2000/svg">
<g clip-path="url(#clip0_1778_8)">
<rect x="19" y="19" width="154" height="154" rx="12" fill="white"/>
<rect x="-7.45831" y="84.5128" width="177.114" height="128.48" fill="#96DFD3"/>
<path d="M161.308 103.023L67.307 9.02158H187.077V77.254L161.308 103.023Z" fill="#54688C"/>
<path d="M149.694 110.644V87.7793L175.1 96.8528L163.849 110.644H149.694Z" fill="#54688C"/>
<path d="M98.1568 39.8714L9.96272 128.065V9.02158H67.307L98.1568 39.8714Z" fill="#9ABEFF"/>
<path d="M38.2719 96.1268C38.2719 47.7083 48.6494 37.3308 97.068 37.3308C145.487 37.3308 155.864 47.7083 155.864 96.1268C155.864 144.545 145.487 154.923 97.068 154.923C48.6494 154.923 38.2719 144.545 38.2719 96.1268Z" fill="white"/>
<path fill-rule="evenodd" clip-rule="evenodd" d="M109.705 154.619C111.484 120.882 121.826 110.542 155.564 108.763L109.705 154.619Z" fill="#F9DE81"/>
<path fill-rule="evenodd" clip-rule="evenodd" d="M155.568 108.763C153.789 142.507 143.448 152.848 109.704 154.627L155.568 108.763Z" fill="#FF837D"/>
<path d="M109.704 154.627L150.783 195.705H202.683V80.1575H184.173L155.568 108.763C153.789 142.507 143.448 152.848 109.704 154.627Z" fill="#FF837D"/>
<rect x="74.5658" y="80.1576" width="45.7303" height="5.08114" rx="2.54057" fill="#9ABEFF"/>
<rect x="74.5659" y="93.9492" width="45.7303" height="5.08114" rx="2.54057" fill="#96DFD3"/>
<rect x="74.5659" y="107.741" width="45.7303" height="5.08114" rx="2.54057" fill="#FF837D"/>
</g>
<defs>
<clipPath id="clip0_1778_8">
<rect x="19" y="19" width="154" height="154" rx="12" fill="white"/>
</clipPath>
</defs>
</svg>

<svg xmlns="http://www.w3.org/2000/svg" width="192" height="192" fill="none"><g clip-path="url(#a)"><rect width="154" height="154" x="19" y="19" fill="#fff" rx="12"/><path fill="#96DFD3" d="M-7.458 84.513h177.114v128.48H-7.458z"/><path fill="#54688C" d="M161.308 103.023 67.307 9.022h119.77v68.232l-25.769 25.769Z"/><path fill="#54688C" d="M149.694 110.644V87.779l25.406 9.074-11.251 13.791h-14.155Z"/><path fill="#9ABEFF" d="M98.157 39.871 9.963 128.065V9.022h57.344l30.85 30.85Z"/><path fill="#fff" d="M38.272 96.127c0-48.419 10.377-58.796 58.796-58.796s58.796 10.377 58.796 58.796c0 48.418-10.377 58.796-58.796 58.796s-58.796-10.378-58.796-58.796Z"/><path fill="#F9DE81" fill-rule="evenodd" d="M109.705 154.619c1.779-33.737 12.121-44.077 45.859-45.856l-45.859 45.856Z" clip-rule="evenodd"/><path fill="#FF837D" fill-rule="evenodd" d="M155.568 108.763c-1.779 33.744-12.12 44.085-45.864 45.864l45.864-45.864Z" clip-rule="evenodd"/><path fill="#FF837D" d="m109.704 154.627 41.079 41.078h51.9V80.157h-18.51l-28.605 28.606c-1.779 33.744-12.12 44.085-45.864 45.864Z"/><rect width="45.73" height="5.081" x="74.566" y="80.158" fill="#9ABEFF" rx="2.541"/><rect width="45.73" height="5.081" x="74.566" y="93.949" fill="#96DFD3" rx="2.541"/><rect width="45.73" height="5.081" x="74.566" y="107.741" fill="#FF837D" rx="2.541"/></g><defs><clipPath id="a"><rect width="154" height="154" x="19" y="19" fill="#fff" rx="12"/></clipPath></defs></svg>
